RestoDelMundo/Varios/Federaciones/Surinamese Football Association.svg

<svg xmlns="http://www.w3.org/2000/svg" width="500" height="593.59" viewBox="0 0 500 593.59"><path fill="#006f3b" d="M250 593.59c28.773-90.598 250-100 250-272.649 0-108.547-61.808-120.94-61.808-199.146C438.193 90.385 452.32 75 452.32 75L338.273 0S289.948 39.103 250 39.103 161.727 0 161.727 0L47.681 75s14.127 15.384 14.127 46.795C61.808 200 0 212.394 0 320.941 0 493.59 221.228 502.991 250 593.59"/><path fill="#fff" d="M136.087 177.133c-7.98 0-5.928-6.841-20.749-6.841-11.846 0-21.432 8.465-21.432 18.928 0 30.37 35.311 47.448 65.555 84.817 19.248 23.782 41.18 65.542 41.18 104.653 0 46.805-30.964 69.245-69.231 69.245-34.014 0-61.538-29.538-61.538-66.039 0-7.442 6.451-13.464 14.422-13.464 26.604 0 5.449 46.163 51.603 46.163 20.551 0 37.179-22.369 37.179-50.011 0-63.474-108.974-107.073-108.974-173.754 0-21.681 18.837-53.151 42.115-53.151 23.941 0 37.849 10.718 37.849 28.05.001 6.304-3.569 11.404-7.979 11.404M372.009 276.536c40.121-11.451 63.888-39.69 63.888-88.74 0-24.082-17.202-50.117-38.461-50.117-21.154 0-42.949 31.241-42.949 31.241l14.958 16.491s13.675-14.754 25.641-14.754c8.503 0 15.385 9.316 15.385 20.829 0 34.765-45.596 63.521-75.462 68.623l-12.597 40.942c45.059 2.381 80.366 25.772 80.366 63.571 0 25.903-16.239 46.863-42.734 46.863-26.917 0-50.335-17.759-62.627-29.191l-10.357 33.667c13.818 13.099 39.971 31.974 75.975 31.974 37.794 0 68.376-42.091 68.376-85.917-.001-38.894-18.632-62.485-59.402-85.482"/><path fill="#fff" d="M348.178 164.52c1.065-1.526 5.834-8.168 12.875-15.225l19.504-63.396h-33.365L250 401.808l-97.191-315.91h-33.365l15.598 50.696c10.679 6.103 16.717 16.173 16.717 29.136 0 4.902-1.455 9.304-3.862 12.652l36.807 119.635c12.376 22.248 22.592 49.6 23.553 76.555L250 510.257l102.25-332.352-7.579-8.357z"/><path fill="#fff" d="M250 142.843c-28.1 0-50.962 22.862-50.962 50.961S221.9 244.766 250 244.766s50.962-22.862 50.962-50.962S278.1 142.843 250 142.843"/><path fill="#006f3b" d="M250 147.97c-25.272 0-45.833 20.561-45.833 45.833s20.561 45.833 45.833 45.833 45.833-20.562 45.833-45.833c.001-25.272-20.56-45.833-45.833-45.833"/><path fill="#fff" d="m261.139 226.326-10.177-2.961v-11.079l16.318-11.856 10.537 3.424-.328 10.593ZM238.862 226.326l-16.35-11.879-.329-10.593 10.537-3.424 16.319 11.856v11.079ZM239.896 160.946h20.209l6.493 8.377-6.512 8.963h-20.171l-6.512-8.963ZM278.127 174.04l6.245 19.22-5.961 8.765-10.536-3.424-6.233-19.184 6.513-8.964ZM231.846 170.453l6.513 8.964-6.233 19.184-10.537 3.424-5.96-8.765 6.245-19.22ZM214.043 194.35l6.205 9.122.342 11.024-6.2 4.952c-5.181-7.175-8.256-15.963-8.295-25.461zM279.753 203.472l6.205-9.122 7.948-.363c-.039 9.498-3.114 18.286-8.295 25.461l-6.199-4.952zM285.397 167.86l-6.627 4.368-10.38-3.733-6.758-8.719 2.111-7.668c8.755 2.893 16.3 8.466 21.654 15.752M236.259 152.108l2.11 7.668-6.758 8.719-10.38 3.733-6.627-4.368c5.354-7.286 12.899-12.859 21.655-15.752M236.608 235.618l2.8-7.449 10.592-3.08 10.592 3.081 2.801 7.449c-4.225 1.356-8.724 2.096-13.393 2.096s-9.168-.741-13.392-2.097"/></svg>

<svg enable-background="new 0 0 500 593.59" height="593.59" viewBox="0 0 500 593.59" width="500" xmlns="http://www.w3.org/2000/svg"><path d="M 250 593.59 c 28.773 -90.598 250 -100 250 -272.649 c 0 -108.547 -61.808 -120.94 -61.808 -199.146 C 438.193 90.385 452.32 75 452.32 75 L 338.273 0 c 0 0 -48.325 39.103 -88.273 39.103 S 161.727 0 161.727 0 L 47.681 75 c 0 0 14.127 15.384 14.127 46.795 C 61.808 200 0 212.394 0 320.941 C 0 493.59 221.228 502.991 250 593.59 z" fill="#006f3b"/><path d="M 136.087 177.133 c -7.98 0 -5.928 -6.841 -20.749 -6.841 c -11.846 0 -21.432 8.465 -21.432 18.928 c 0 30.37 35.311 47.448 65.555 84.817 c 19.248 23.782 41.18 65.542 41.18 104.653 c 0 46.805 -30.964 69.245 -69.231 69.245 c -34.014 0 -61.538 -29.538 -61.538 -66.039 c 0 -7.442 6.451 -13.464 14.422 -13.464 c 26.604 0 5.449 46.163 51.603 46.163 c 20.551 0 37.179 -22.369 37.179 -50.011 c 0 -63.474 -108.974 -107.073 -108.974 -173.754 c 0 -21.681 18.837 -53.151 42.115 -53.151 c 23.941 0 37.849 10.718 37.849 28.05 C 144.067 172.033 140.497 177.133 136.087 177.133 z" fill="#fff"/><path d="M 372.009 276.536 c 40.121 -11.451 63.888 -39.69 63.888 -88.74 c 0 -24.082 -17.202 -50.117 -38.461 -50.117 c -21.154 0 -42.949 31.241 -42.949 31.241 l 14.958 16.491 c 0 0 13.675 -14.754 25.641 -14.754 c 8.503 0 15.385 9.316 15.385 20.829 c 0 34.765 -45.596 63.521 -75.462 68.623 l -12.597 40.942 c 45.059 2.381 80.366 25.772 80.366 63.571 c 0 25.903 -16.239 46.863 -42.734 46.863 c -26.917 0 -50.335 -17.759 -62.627 -29.191 l -10.357 33.667 c 13.818 13.099 39.971 31.974 75.975 31.974 c 37.794 0 68.376 -42.091 68.376 -85.917 C 431.41 323.124 412.779 299.533 372.009 276.536 z" fill="#fff"/><path d="M 348.178 164.52 c 1.065 -1.526 5.834 -8.168 12.875 -15.225 l 19.504 -63.396 h -33.365 L 250 401.808 l -97.191 -315.91 h -33.365 l 15.598 50.696 c 10.679 6.103 16.717 16.173 16.717 29.136 c 0 4.902 -1.455 9.304 -3.862 12.652 l 36.807 119.635 c 12.376 22.248 22.592 49.6 23.553 76.555 L 250 510.257 l 102.25 -332.352 l -7.579 -8.357 L 348.178 164.52 z" fill="#fff"/><path d="M 250 142.843 c -28.1 0 -50.962 22.862 -50.962 50.961 s 22.862 50.962 50.962 50.962 s 50.962 -22.862 50.962 -50.962 S 278.1 142.843 250 142.843 z" fill="#fff"/><path d="M 250 147.97 c -25.272 0 -45.833 20.561 -45.833 45.833 c 0 25.272 20.561 45.833 45.833 45.833 s 45.833 -20.562 45.833 -45.833 C 295.834 168.531 275.273 147.97 250 147.97 z" fill="#006f3b"/><path d="M 261.139 226.326 L 250.962 223.365 L 250.962 212.286 L 267.28 200.43 L 277.817 203.854 L 277.489 214.447 Z" fill="#fff"/><path d="M 238.862 226.326 L 222.512 214.447 L 222.183 203.854 L 232.72 200.43 L 249.039 212.286 L 249.039 223.365 Z" fill="#fff"/><path d="M 239.896 160.946 L 260.105 160.946 L 266.598 169.323 L 260.086 178.286 L 239.915 178.286 L 233.403 169.323 Z" fill="#fff"/><path d="M 278.127 174.04 L 284.372 193.26 L 278.411 202.025 L 267.875 198.601 L 261.642 179.417 L 268.155 170.453 Z" fill="#fff"/><path d="M 231.846 170.453 L 238.359 179.417 L 232.126 198.601 L 221.589 202.025 L 215.629 193.26 L 221.874 174.04 Z" fill="#fff"/><path d="M 214.043 194.35 l 6.205 9.122 l .342 11.024 l -6.2 4.952 c -5.181 -7.175 -8.256 -15.963 -8.295 -25.461 L 214.043 194.35 z" fill="#fff"/><path d="M 279.753 203.472 l 6.205 -9.122 l 7.948 -.363 c -.039 9.498 -3.114 18.286 -8.295 25.461 l -6.199 -4.952 L 279.753 203.472 z" fill="#fff"/><path d="M 285.397 167.86 l -6.627 4.368 l -10.38 -3.733 l -6.758 -8.719 l 2.111 -7.668 C 272.498 155.001 280.043 160.574 285.397 167.86 z" fill="#fff"/><path d="M 236.259 152.108 l 2.11 7.668 l -6.758 8.719 l -10.38 3.733 l -6.627 -4.368 C 219.958 160.574 227.503 155.001 236.259 152.108 z" fill="#fff"/><path d="M 236.608 235.618 l 2.8 -7.449 L 250 225.089 l 10.592 3.081 l 2.801 7.449 c -4.225 1.356 -8.724 2.096 -13.393 2.096 S 240.832 236.974 236.608 235.618 z" fill="#fff"/></svg>
